src/pos-icons/microsoft-dynamics-365.svg

<svg height="24" viewBox="0 0 24 24" width="24" xmlns="http://www.w3.org/2000/svg"><path d="m6 2 11.25 6.5-3.75 3-7.5-3.5zm0 7 3.5 2.25-3.5 10.75 12-13v6l-12 7z"/></svg>

<?xml version="1.0" encoding="UTF-8"?><!DOCTYPE svg PUBLIC "-//W3C//DTD SVG 1.1//EN" "http://www.w3.org/Graphics/SVG/1.1/DTD/svg11.dtd"><svg xmlns="http://www.w3.org/2000/svg" xmlns:xlink="http://www.w3.org/1999/xlink" version="1.1" id="mdi-microsoft-dynamics-365" width="24" height="24" viewBox="0 0 24 24"><path d="M6,2L17.25,8.5L13.5,11.5L6,8V2M6,9L9.5,11.25L6,22L18,9V15L6,22V9Z" /></svg>
